X:361
T:Der Badchen Freylach
Z:Jack Campin, http://www.campin.me.uk/
F:Jack Campin's Nine-Note Tunebook
% last edit 03-02-2013
M:2/4
L:1/16
Q:1/4=100
B:Stacy Phillips, Mel Bay Klezmer Collection
K:DDor
D2DF ^GAGF|{^G}A2{G}A2 FED2|    D2DF ^GAGF      |{^G}A4 A4-   |
AFDF ^GAFD|{^G}A2{G}A2 FED2|    EF^GF EDEF      |    D8      :|
ABcB  dcBA|   ^GABc    A4  |    dcBA ^GABc      |    A4    A4 |\
ABcB  dcBA|
              ^GABc    A4  |[1  ABcB  AB ((3FED)|    EFD2- D4:|\
                            [2 ^GABA  GAFE      |    D8      |]
% original first part
% DA,DF ^GAGF|{^G}A2{G}A2 FED2|    DA,DF ^GAGF      |{^G}A4 A4-   |
% AA,DF ^GAFD|{^G}A2{G}A2 FED2|    EF^GF  EDEF      |    D8      :|

